X: 11857
T: Emergency Pants
R: jig
M: 6/8
K: Amixolydian
|:~e3 fed|edc Bcd|cBc ABc|BAF GFD|
~E3 AEB|cEc dcB|1 ABc edc|B3 Bcd:|2 Ace dcB|A3 BAG||
|:FAd fdA|gdA fdA|~e3 fed|ead cBA|
FAd fdA|gdA fdA|1 ~e3 fed|edc BAG:|2 efe edc|B3 Bcd||

